static/img/in-field/btn-text-only-focus-dark.svg

<svg fill="none" height="64" viewBox="0 0 118 64" width="118" xmlns="http://www.w3.org/2000/svg"><path d="m22.1309 25.2949h4.8877c2.2272 0 3.8421.3187 4.8447.9561 1.0097.6302 1.5146 1.6364 1.5146 3.0185 0 .9382-.222 1.708-.666 2.3096-.4368.6016-1.0205.9632-1.751 1.085v.1074c.9955.222 1.7116.6374 2.1485 1.2461.444.6087.666 1.4179.666 2.4277 0 1.4323-.5192 2.5495-1.5576 3.3516-1.0313.8021-2.4349 1.2031-4.211 1.2031h-5.8759zm3.33 6.2197h1.9336c.9024 0 1.5541-.1396 1.9551-.4189.4082-.2793.6123-.7412.6123-1.3857 0-.6016-.222-1.0313-.666-1.2891-.4369-.265-1.1315-.3975-2.084-.3975h-1.751zm0 2.6426v4.0928h2.17c.9166 0 1.5934-.1755 2.0302-.5264.4369-.3509.6553-.888.6553-1.6113 0-1.3034-.931-1.9551-2.793-1.9551zm19.9512 6.8428-.4404-1.5361h-.1719c-.3509.5586-.8486.9918-1.4932 1.2998-.6445.3008-1.3785.4511-2.2021.4511-1.4108 0-2.4743-.3759-3.1904-1.1279-.7162-.7591-1.0743-1.8476-1.0743-3.2656v-7.8311h3.2764v7.0147c0 .8665.154 1.5182.4619 1.9551.308.4296.7985.6445 1.4717.6445.9167 0 1.5791-.3044 1.9873-.9131.4082-.6159.6123-1.6328.6123-3.0508v-5.6504h3.2764v12.0098zm11.2608-2.3955c.5729 0 1.2604-.1253 2.0625-.376v2.4385c-.8165.3652-1.8191.5478-3.0079.5478-1.3105 0-2.2666-.3294-2.8681-.9882-.5944-.6661-.8916-1.6615-.8916-2.9864v-5.79h-1.5684v-1.3857l1.8047-1.0957.9453-2.5352h2.0947v2.5566h3.3623v2.46h-3.3623v5.79c0 .4655.1289.8093.3868 1.0313.2649.222.6123.333 1.042.333zm9.8105 0c.5729 0 1.2604-.1253 2.0625-.376v2.4385c-.8164.3652-1.819.5478-3.0078.5478-1.3106 0-2.2666-.3294-2.8682-.9882-.5944-.6661-.8916-1.6615-.8916-2.9864v-5.79h-1.5683v-1.3857l1.8046-1.0957.9454-2.5352h2.0947v2.5566h3.3623v2.46h-3.3623v5.79c0 .4655.1289.8093.3867 1.0313.265.222.6123.333 1.042.333zm7.3613-3.6309c0 1.1888.1934 2.0876.5801 2.6963.3939.6087 1.0313.9131 1.9121.9131.8737 0 1.5003-.3008 1.8799-.9023.3867-.6088.5801-1.5111.5801-2.7071 0-1.1888-.1934-2.0804-.5801-2.6748s-1.0205-.8916-1.9014-.8916c-.8737 0-1.5039.2972-1.8906.8916-.3867.5873-.5801 1.4789-.5801 2.6748zm8.3037 0c0 1.9551-.5156 3.4841-1.5468 4.5869-1.0313 1.1029-2.4672 1.6543-4.3077 1.6543-1.1529 0-2.1699-.2506-3.0507-.7519-.8809-.5085-1.5577-1.2354-2.0303-2.1807-.4727-.9453-.709-2.0482-.709-3.3086 0-1.9622.5121-3.4876 1.5361-4.5761 1.0241-1.0886 2.4636-1.6329 4.3184-1.6329 1.153 0 2.1699.2507 3.0508.752.8808.5013 1.5576 1.221 2.0303 2.1592.4726.9381.7089 2.0374.7089 3.2978zm14.043 6.0264h-3.2764v-7.0146c0-.8666-.1539-1.5147-.4619-1.9444-.3079-.4368-.7985-.6553-1.4717-.6553-.9166 0-1.5791.308-1.9873.9239-.4082.6087-.6123 1.622-.6123 3.04v5.6504h-3.2763v-12.0098h2.5029l.4404 1.5362h.1826c.3653-.5801.8666-1.017 1.504-1.3106.6445-.3008 1.375-.4512 2.1914-.4512 1.3964 0 2.4563.3796 3.1796 1.1387.7234.752 1.085 1.8405 1.085 3.2656z" fill="#019aeb"/><rect height="60" rx="6" stroke="#019aeb" stroke-width="4" width="114" x="2" y="2"/></svg>

<svg width="118" height="64" viewBox="0 0 118 64" fill="none" xmlns="http://www.w3.org/2000/svg"><path d="M22.1309 25.2949H27.0186C29.2458 25.2949 30.8607 25.6136 31.8633 26.251C32.873 26.8812 33.3779 27.8874 33.3779 29.2695C33.3779 30.2077 33.1559 30.9775 32.7119 31.5791C32.2751 32.1807 31.6914 32.5423 30.9609 32.6641V32.7715C31.9564 32.9935 32.6725 33.4089 33.1094 34.0176C33.5534 34.6263 33.7754 35.4355 33.7754 36.4453C33.7754 37.8776 33.2562 38.9948 32.2178 39.7969C31.1865 40.599 29.7829 41 28.0068 41H22.1309V25.2949ZM25.4609 31.5146H27.3945C28.2969 31.5146 28.9486 31.375 29.3496 31.0957C29.7578 30.8164 29.9619 30.3545 29.9619 29.71C29.9619 29.1084 29.7399 28.6787 29.2959 28.4209C28.859 28.1559 28.1644 28.0234 27.2119 28.0234H25.4609V31.5146ZM25.4609 34.1572V38.25H27.6309C28.5475 38.25 29.2243 38.0745 29.6611 37.7236C30.098 37.3727 30.3164 36.8356 30.3164 36.1123C30.3164 34.8089 29.3854 34.1572 27.5234 34.1572H25.4609ZM45.4121 41L44.9717 39.4639H44.7998C44.4489 40.0225 43.9512 40.4557 43.3066 40.7637C42.6621 41.0645 41.9281 41.2148 41.1045 41.2148C39.6937 41.2148 38.6302 40.8389 37.9141 40.0869C37.1979 39.3278 36.8398 38.2393 36.8398 36.8213V28.9902H40.1162V36.0049C40.1162 36.8714 40.2702 37.5231 40.5781 37.96C40.8861 38.3896 41.3766 38.6045 42.0498 38.6045C42.9665 38.6045 43.6289 38.3001 44.0371 37.6914C44.4453 37.0755 44.6494 36.0586 44.6494 34.6406V28.9902H47.9258V41H45.4121ZM56.6729 38.6045C57.2458 38.6045 57.9333 38.4792 58.7354 38.2285V40.667C57.9189 41.0322 56.9163 41.2148 55.7275 41.2148C54.417 41.2148 53.4609 40.8854 52.8594 40.2266C52.265 39.5605 51.9678 38.5651 51.9678 37.2402V31.4502H50.3994V30.0645L52.2041 28.9688L53.1494 26.4336H55.2441V28.9902H58.6064V31.4502H55.2441V37.2402C55.2441 37.7057 55.373 38.0495 55.6309 38.2715C55.8958 38.4935 56.2432 38.6045 56.6729 38.6045ZM66.4834 38.6045C67.0563 38.6045 67.7438 38.4792 68.5459 38.2285V40.667C67.7295 41.0322 66.7269 41.2148 65.5381 41.2148C64.2275 41.2148 63.2715 40.8854 62.6699 40.2266C62.0755 39.5605 61.7783 38.5651 61.7783 37.2402V31.4502H60.21V30.0645L62.0146 28.9688L62.96 26.4336H65.0547V28.9902H68.417V31.4502H65.0547V37.2402C65.0547 37.7057 65.1836 38.0495 65.4414 38.2715C65.7064 38.4935 66.0537 38.6045 66.4834 38.6045ZM73.8447 34.9736C73.8447 36.1624 74.0381 37.0612 74.4248 37.6699C74.8187 38.2786 75.4561 38.583 76.3369 38.583C77.2106 38.583 77.8372 38.2822 78.2168 37.6807C78.6035 37.0719 78.7969 36.1696 78.7969 34.9736C78.7969 33.7848 78.6035 32.8932 78.2168 32.2988C77.8301 31.7044 77.1963 31.4072 76.3154 31.4072C75.4417 31.4072 74.8115 31.7044 74.4248 32.2988C74.0381 32.8861 73.8447 33.7777 73.8447 34.9736ZM82.1484 34.9736C82.1484 36.9287 81.6328 38.4577 80.6016 39.5605C79.5703 40.6634 78.1344 41.2148 76.2939 41.2148C75.141 41.2148 74.124 40.9642 73.2432 40.4629C72.3623 39.9544 71.6855 39.2275 71.2129 38.2822C70.7402 37.3369 70.5039 36.234 70.5039 34.9736C70.5039 33.0114 71.016 31.486 72.04 30.3975C73.0641 29.3089 74.5036 28.7646 76.3584 28.7646C77.5114 28.7646 78.5283 29.0153 79.4092 29.5166C80.29 30.0179 80.9668 30.7376 81.4395 31.6758C81.9121 32.6139 82.1484 33.7132 82.1484 34.9736ZM96.1914 41H92.915V33.9854C92.915 33.1188 92.7611 32.4707 92.4531 32.041C92.1452 31.6042 91.6546 31.3857 90.9814 31.3857C90.0648 31.3857 89.4023 31.6937 88.9941 32.3096C88.5859 32.9183 88.3818 33.9316 88.3818 35.3496V41H85.1055V28.9902H87.6084L88.0488 30.5264H88.2314C88.5967 29.9463 89.098 29.5094 89.7354 29.2158C90.3799 28.915 91.1104 28.7646 91.9268 28.7646C93.3232 28.7646 94.3831 29.1442 95.1064 29.9033C95.8298 30.6553 96.1914 31.7438 96.1914 33.1689V41Z" fill="#019AEB"/><rect x="2" y="2" width="114" height="60" rx="6" stroke="#019AEB" stroke-width="4"/></svg>
